;FLAVOR:Marlin
;TIME:20839
;Filament used: 12.8982m
;Layer height: 0.2
;MINX:119.104
;MINY:119.104
;MINZ:0.2
;MAXX:280.896
;MAXY:280.898
;MAXZ:6.475
;Generated with Cura_SteamEngine 4.13.1
M140 S50
M105
M190 S50
M104 S210
M105
M109 S210
M82 ;absolute extrusion mode
M107 ;Start with the fan off
G21 ;Set units to millimeters
G91 ;Change to relative positioning mode for retract filament and nozzle lifting
G1 F200 E-3 ;Retract 3mm filament for a clean start
G92 E0 ;Zero the extruded length
G1 F1000 Z5 ;Lift the nozzle 5mm before homing axes
G90 ;Absolute positioning
M82 ;Set extruder to absolute mode too
G28 X0 Y0 ;First move X/Y to min endstops
G28 Z0 ;Then move Z to min endstops
G1 F1000 Z15 ;After homing lift the nozzle 15mm before start printing

G92 E0
G92 E0
G1 F3000 E-5
;LAYER_COUNT:32
;LAYER:0
M106 S102
M204 S3000
M205 X10 Y10
G1 F600 Z0.275
G0 F3000 X124.195 Y123.818 Z0.275
M204 S1800
M205 X8 Y8
;TYPE:SKIRT
G1 F600 Z0.2
G1 F3000 E0
G1 F2400 X124.842 Y123.27 E0.04512
G1 X125.029 Y123.131 E0.05752
G1 X125.859 Y122.605 E0.10981
G1 X126.245 Y122.399 E0.1331
G1 X127.189 Y121.987 E0.18791
G1 X127.697 Y121.825 E0.21628
G1 X128.563 Y121.624 E0.26359
G1 X128.773 Y121.59 E0.27492
G1 X129.352 Y121.522 E0.30594
G1 X130.506 Y121.44 E0.36751
G1 X157.007 Y119.998 E1.77987
G1 X158.419 Y119.941 E1.85508
G1 X185.091 Y119.216 E3.27498
G1 X186.879 Y119.192 E3.37014
G1 X199.878 Y119.104 E4.06192
G1 X200.562 Y119.104 E4.09832
G1 X213.672 Y119.193 E4.796
G1 X214.679 Y119.21 E4.84959
G1 X241.671 Y119.944 E6.28654
G1 X243.083 Y120.003 E6.36174
G1 X269.757 Y121.455 E7.78333
G1 X270.384 Y121.497 E7.81678
G1 X271.239 Y121.595 E7.86257
G1 X271.953 Y121.728 E7.90122
G1 X272.717 Y121.956 E7.94365
G1 X273.639 Y122.336 E7.99672
G1 X273.84 Y122.437 E8.00869
G1 X274.621 Y122.899 E8.05698
G1 X274.981 Y123.147 E8.08025
G1 X275.635 Y123.661 E8.12451
G1 X276.038 Y124.045 E8.15414
G1 X276.195 Y124.208 E8.16618
G1 X276.767 Y124.889 E8.21351
G1 X276.898 Y125.068 E8.22531
G1 X277.395 Y125.859 E8.27502
G1 X277.601 Y126.245 E8.29831
G1 X278.013 Y127.189 E8.35312
G1 X278.185 Y127.734 E8.38353
G1 X278.375 Y128.556 E8.42843
G1 X278.408 Y128.757 E8.43927
G1 X278.478 Y129.346 E8.47083
G1 X278.551 Y130.348 E8.5243
G1 X280.002 Y157.007 E9.94509
G1 X280.059 Y158.419 E10.02029
G1 X280.784 Y185.09 E11.44015
G1 X280.808 Y186.879 E11.53536
G1 X280.896 Y199.878 E12.22713
G1 X280.896 Y200.498 E12.26013
G1 X280.807 Y213.672 E12.96121
G1 X280.79 Y214.679 E13.01481
G1 X280.056 Y241.67 E14.4517
G1 X279.997 Y243.082 E14.52691
G1 X278.547 Y269.744 E15.94785
G1 X278.503 Y270.391 E15.98236
G1 X278.405 Y271.239 E16.02779
G1 X278.272 Y271.953 E16.06644
G1 X278.051 Y272.697 E16.10774
G1 X277.665 Y273.639 E16.16192
G1 X277.565 Y273.838 E16.17377
G1 X277.099 Y274.626 E16.22249
G1 X276.849 Y274.988 E16.2459
G1 X276.339 Y275.635 E16.28974
G1 X275.965 Y276.027 E16.31857
G1 X275.811 Y276.176 E16.32998
G1 X275.155 Y276.733 E16.37577
G1 X274.969 Y276.871 E16.3881
G1 X274.137 Y277.397 E16.44048
G1 X273.75 Y277.603 E16.46381
G1 X272.925 Y277.972 E16.51191
G1 X272.224 Y278.197 E16.55109
G1 X271.431 Y278.377 E16.59436
G1 X271.235 Y278.409 E16.60493
G1 X270.648 Y278.478 E16.63638
G1 X269.494 Y278.56 E16.69795
G1 X242.993 Y280.002 E18.11032
G1 X241.581 Y280.059 E18.18552
G1 X214.612 Y280.791 E19.62124
G1 X213.605 Y280.808 E19.67483
G1 X200.265 Y280.898 E20.38475
G1 X199.522 Y280.898 E20.42429
G1 X186.334 Y280.807 E21.12612
G1 X185.314 Y280.79 E21.18041
G1 X158.33 Y280.056 E22.61693
G1 X156.917 Y279.997 E22.69219
G1 X130.243 Y278.545 E24.11378
G1 X129.616 Y278.503 E24.14722
G1 X128.761 Y278.405 E24.19302
G1 X128.047 Y278.272 E24.23167
G1 X127.556 Y278.132 E24.25884
G1 X127.272 Y278.039 E24.27474
G1 X126.398 Y277.682 E24.32499
G1 X126.194 Y277.581 E24.3371
G1 X125.371 Y277.096 E24.38794
G1 X125.012 Y276.848 E24.41116
G1 X124.365 Y276.339 E24.45496
G1 X123.964 Y275.956 E24.48447
G1 X123.804 Y275.79 E24.49674
G1 X123.208 Y275.078 E24.54616
G1 X123.08 Y274.901 E24.55778
G1 X122.605 Y274.14 E24.60552
G1 X122.399 Y273.754 E24.6288
G1 X121.996 Y272.838 E24.68206
G1 X121.804 Y272.226 E24.71619
G1 X121.622 Y271.426 E24.75985
G1 X121.59 Y271.229 E24.77047
G1 X121.522 Y270.648 E24.8016
G1 X121.44 Y269.494 E24.86317
G1 X119.998 Y242.993 E26.27554
G1 X119.941 Y241.581 E26.35074
G1 X119.216 Y214.91 E27.77059
G1 X119.192 Y213.121 E27.86581
G1 X119.104 Y200.122 E28.55758
G1 X119.104 Y199.439 E28.59393
G1 X119.193 Y186.301 E29.2931
G1 X119.21 Y185.321 E29.34526
G1 X119.944 Y158.33 E30.78215
G1 X120.003 Y156.917 E30.85741
G1 X121.455 Y130.236 E32.27937
G1 X121.497 Y129.613 E32.3126
G1 X121.595 Y128.761 E32.35824
G1 X121.821 Y127.706 E32.41565
G1 X121.969 Y127.245 E32.44142
G1 X122.342 Y126.348 E32.49312
G1 X122.443 Y126.148 E32.50504
G1 X122.894 Y125.386 E32.55216
G1 X123.142 Y125.025 E32.57547
G1 X123.788 Y124.225 E32.63019
G1 X124.195 Y123.818 E32.66082
M204 S3000
M205 X10 Y10
G0 F3000 X124.64 Y124.279
M204 S1800
M205 X8 Y8
G1 F2400 X125.223 Y123.784 E32.70152
G1 X125.41 Y123.645 E32.71392
G1 X126.16 Y123.17 E32.76116
G1 X126.546 Y122.964 E32.78445
G1 X127.398 Y122.591 E32.83394
G1 X127.884 Y122.437 E32.86107
G1 X128.665 Y122.256 E32.90374
G1 X128.875 Y122.222 E32.91506
G1 X129.398 Y122.161 E32.94308
G1 X130.541 Y122.079 E33.00406
G1 X157.033 Y120.638 E34.41595
G1 X158.436 Y120.581 E34.49067
G1 X185.191 Y119.855 E35.915
G1 X186.884 Y119.832 E36.0051
G1 X199.883 Y119.744 E36.69687
G1 X200.557 Y119.744 E36.73274
G1 X213.661 Y119.833 E37.4301
G1 X214.662 Y119.85 E37.48338
G1 X241.645 Y120.584 E38.91984
G1 X243.048 Y120.642 E38.99457
G1 X269.714 Y122.093 E40.41573
G1 X270.341 Y122.135 E40.44917
G1 X271.157 Y122.23 E40.49289
G1 X271.835 Y122.358 E40.52961
G1 X272.519 Y122.565 E40.56764
G1 X273.352 Y122.908 E40.61558
G1 X273.553 Y123.009 E40.62755
G1 X274.258 Y123.426 E40.67114
G1 X274.618 Y123.674 E40.6944
G1 X275.208 Y124.138 E40.73435
G1 X275.577 Y124.489 E40.76145
G1 X275.734 Y124.652 E40.77349
G1 X276.251 Y125.267 E40.81625
G1 X276.382 Y125.446 E40.82805
G1 X276.83 Y126.16 E40.87291
G1 X277.036 Y126.546 E40.89619
G1 X277.409 Y127.398 E40.94569
G1 X277.572 Y127.917 E40.97464
G1 X277.743 Y128.659 E41.01516
G1 X277.776 Y128.86 E41.026
G1 X277.839 Y129.393 E41.05456
G1 X277.919 Y130.504 E41.11384
G1 X279.362 Y157.033 E42.5277
G1 X279.419 Y158.436 E42.60242
G1 X280.145 Y185.19 E44.02669
G1 X280.168 Y186.884 E44.11685
G1 X280.256 Y199.883 E44.80862
G1 X280.256 Y200.494 E44.84114
G1 X280.167 Y213.661 E45.54185
G1 X280.15 Y214.662 E45.59513
G1 X279.416 Y241.644 E47.03154
G1 X279.358 Y243.048 E47.10632
G1 X277.908 Y269.7 E48.52673
G1 X277.864 Y270.347 E48.56124
G1 X277.77 Y271.157 E48.60464
G1 X277.642 Y271.835 E48.64136
G1 X277.442 Y272.501 E48.67836
G1 X277.093 Y273.352 E48.72731
G1 X276.993 Y273.551 E48.73916
G1 X276.572 Y274.262 E48.78313
G1 X276.322 Y274.624 E48.80655
G1 X275.862 Y275.208 E48.84611
G1 X275.366 Y275.716 E48.88389
G1 X274.773 Y276.219 E48.92527
G1 X274.587 Y276.357 E48.9376
G1 X273.836 Y276.832 E48.98488
G1 X273.449 Y277.038 E49.00821
G1 X272.704 Y277.371 E49.05164
G1 X272.044 Y277.582 E49.08851
G1 X271.328 Y277.745 E49.12759
G1 X271.132 Y277.777 E49.13816
G1 X270.602 Y277.839 E49.16656
G1 X269.459 Y277.921 E49.22754
G1 X242.967 Y279.362 E50.63943
G1 X241.564 Y279.419 E50.71415
G1 X214.601 Y280.151 E52.14955
G1 X213.6 Y280.168 E52.20283
G1 X200.26 Y280.258 E52.91275
G1 X199.526 Y280.258 E52.95181
G1 X186.345 Y280.167 E53.65327
G1 X185.331 Y280.15 E53.70724
G1 X158.356 Y279.416 E55.14327
G1 X156.952 Y279.358 E55.21805
G1 X130.286 Y277.907 E56.63922
G1 X129.659 Y277.865 E56.67266
G1 X128.843 Y277.77 E56.71638
G1 X128.165 Y277.642 E56.75309
G1 X127.471 Y277.431 E56.7917
G1 X126.682 Y277.108 E56.83707
G1 X126.478 Y277.007 E56.84918
G1 X125.734 Y276.57 E56.8951
G1 X125.375 Y276.322 E56.91832
G1 X124.792 Y275.862 E56.95784
G1 X124.425 Y275.512 E56.98482
G1 X124.265 Y275.346 E56.99709
G1 X123.727 Y274.703 E57.04171
G1 X123.599 Y274.526 E57.05333
G1 X123.17 Y273.839 E57.09644
G1 X122.964 Y273.453 E57.11972
G1 X122.6 Y272.625 E57.16785
G1 X122.418 Y272.046 E57.20015
G1 X122.254 Y271.324 E57.23955
G1 X122.222 Y271.127 E57.25017
G1 X122.161 Y270.601 E57.27835
G1 X122.079 Y269.459 E57.33928
G1 X120.638 Y242.967 E58.75117
G1 X120.581 Y241.564 E58.82589
G1 X119.855 Y214.81 E60.25016
G1 X119.832 Y213.116 E60.34032
G1 X119.744 Y200.117 E61.03209
G1 X119.744 Y199.443 E61.06796
G1 X119.833 Y186.312 E61.76676
G1 X119.85 Y185.338 E61.8186
G1 X120.584 Y158.356 E63.25501
G1 X120.642 Y156.952 E63.32979
G1 X122.093 Y130.279 E64.75133
G1 X122.135 Y129.656 E64.78455
G1 X122.23 Y128.843 E64.82811
G1 X122.434 Y127.89 E64.87998
G1 X122.576 Y127.446 E64.90478
G1 X122.913 Y126.636 E64.95147
G1 X123.014 Y126.436 E64.96339
G1 X123.422 Y125.748 E65.00596
G1 X123.67 Y125.387 E65.02927
G1 X124.253 Y124.665 E65.07865
G1 X124.64 Y124.279 E65.10774
M204 S3000
M205 X10 Y10
G0 F3000 X125.084 Y124.739
M204 S1800
M205 X8 Y8
G1 F2400 X125.605 Y124.297 E65.1441
G1 X125.792 Y124.158 E65.1565
G1 X126.461 Y123.735 E65.19862
G1 X126.847 Y123.529 E65.2219
G1 X127.608 Y123.196 E65.26611
G1 X128.07 Y123.049 E65.29191
G1 X128.768 Y122.887 E65.33004
G1 X129.444 Y122.799 E65.36632
G1 X130.576 Y122.718 E65.42671
G1 X157.059 Y121.277 E66.83812
G1 X158.453 Y121.221 E66.91237
G1 X185.199 Y120.494 E68.33621
G1 X186.888 Y120.472 E68.4261
G1 X199.887 Y120.384 E69.11788
G1 X200.553 Y120.384 E69.15332
G1 X213.651 Y120.473 E69.85036
G1 X214.645 Y120.49 E69.90327
G1 X241.619 Y121.223 E71.33925
G1 X243.013 Y121.281 E71.4135
G1 X269.672 Y122.732 E72.83429
G1 X270.299 Y122.774 E72.86773
G1 X271.075 Y122.864 E72.9093
G1 X271.715 Y122.988 E72.94399
G1 X272.321 Y123.174 E72.97773
G1 X273.065 Y123.479 E73.02052
G1 X273.266 Y123.58 E73.03249
G1 X273.895 Y123.953 E73.07141
G1 X274.255 Y124.201 E73.09467
G1 X274.782 Y124.615 E73.13033
G1 X275.273 Y125.096 E73.16691
G1 X275.734 Y125.645 E73.20506
G1 X275.865 Y125.824 E73.21687
G1 X276.265 Y126.461 E73.25689
G1 X276.471 Y126.847 E73.28018
G1 X276.804 Y127.608 E73.32438
G1 X276.959 Y128.1 E73.35183
G1 X277.112 Y128.763 E73.38804
G1 X277.201 Y129.439 E73.42433
G1 X277.28 Y130.539 E73.48302
G1 X278.723 Y157.059 E74.8964
G1 X278.779 Y158.453 E74.97064
G1 X279.506 Y185.198 E76.39443
G1 X279.528 Y186.888 E76.48438
G1 X279.616 Y199.887 E77.17615
G1 X279.616 Y200.49 E77.20824
G1 X279.527 Y213.651 E77.90863
G1 X279.51 Y214.645 E77.96154
G1 X278.777 Y241.618 E79.39747
G1 X278.719 Y243.013 E79.47177
G1 X277.27 Y269.657 E80.89176
G1 X277.226 Y270.304 E80.92627
G1 X277.136 Y271.075 E80.96758
G1 X276.924 Y272.019 E81.01907
G1 X276.832 Y272.305 E81.03505
G1 X276.522 Y273.065 E81.07873
G1 X276.422 Y273.264 E81.09058
G1 X276.046 Y273.898 E81.12981
G1 X275.796 Y274.26 E81.15322
G1 X275.385 Y274.782 E81.18858
G1 X274.921 Y275.256 E81.22388
G1 X274.392 Y275.705 E81.2608
G1 X274.206 Y275.843 E81.27313
G1 X273.536 Y276.267 E81.31532
G1 X273.149 Y276.473 E81.33865
G1 X272.483 Y276.771 E81.37748
G1 X271.864 Y276.968 E81.41205
G1 X271.225 Y277.113 E81.44692
G1 X270.556 Y277.201 E81.48283
G1 X269.424 Y277.282 E81.54322
G1 X242.941 Y278.723 E82.95463
G1 X241.547 Y278.779 E83.02887
G1 X214.591 Y279.511 E84.4639
G1 X213.596 Y279.528 E84.51686
G1 X200.256 Y279.618 E85.22678
G1 X199.531 Y279.618 E85.26536
G1 X186.356 Y279.527 E85.9665
G1 X185.348 Y279.51 E86.02015
G1 X158.382 Y278.777 E87.45571
G1 X156.987 Y278.719 E87.53001
G1 X130.328 Y277.268 E88.9508
G1 X129.701 Y277.226 E88.98424
G1 X128.925 Y277.136 E89.02581
G1 X128.285 Y277.012 E89.06051
G1 X127.67 Y276.823 E89.09474
G1 X126.966 Y276.535 E89.13522
G1 X126.762 Y276.434 E89.14734
G1 X126.098 Y276.043 E89.18834
G1 X125.739 Y275.795 E89.21156
G1 X125.218 Y275.385 E89.24684
G1 X124.726 Y274.902 E89.28353
G1 X124.245 Y274.327 E89.32343
G1 X124.117 Y274.15 E89.33505
G1 X123.735 Y273.538 E89.37344
G1 X123.529 Y273.152 E89.39673
G1 X123.204 Y272.413 E89.43969
G1 X123.032 Y271.865 E89.47026
G1 X122.886 Y271.221 E89.5054
G1 X122.799 Y270.555 E89.54114
G1 X122.718 Y269.424 E89.60148
G1 X121.277 Y242.941 E91.01289
G1 X121.221 Y241.547 E91.08713
G1 X120.494 Y214.802 E92.51093
G1 X120.472 Y213.112 E92.60087
G1 X120.384 Y200.113 E93.29264
G1 X120.384 Y199.447 E93.32809
G1 X120.473 Y186.323 E94.02651
G1 X120.49 Y185.355 E94.07803
G1 X121.223 Y158.382 E95.51396
G1 X121.281 Y156.987 E95.58826
G1 X122.732 Y130.322 E97.00937
G1 X122.774 Y129.699 E97.0426
G1 X122.864 Y128.925 E97.08407
G1 X123.046 Y128.075 E97.13033
G1 X123.184 Y127.648 E97.15421
G1 X123.484 Y126.925 E97.19587
G1 X123.585 Y126.725 E97.20779
G1 X123.949 Y126.111 E97.24577
G1 X124.197 Y125.75 E97.26908
G1 X124.718 Y125.105 E97.31321
G1 X125.084 Y124.739 E97.34075
M204 S3000
M205 X10 Y10
G1 F3000 E92.34075
G0 X149.905 Y150.019
M204 S1800
M205 X8 Y8
;TYPE:SUPPORT
G1 F3000 E97.34075
G1 F1200 X150.178 Y149.799 E97.35941
G1 X150.472 Y149.735 E97.37542
G1 X150.725 Y149.768 E97.389
G1 X150.96 Y149.887 E97.40302
G1 X151.139 Y150.074 E97.41679
G1 X151.255 Y150.33 E97.43175
G1 X151.25 Y150.683 E97.45054
G1 X151.137 Y150.933 E97.46514
G1 X150.961 Y151.117 E97.47869
G1 X150.645 Y151.264 E97.49723
G1 X150.34 Y151.251 E97.51348
G1 X150.096 Y151.154 E97.52745
G1 X149.905 Y150.986 E97.54099
G1 X149.778 Y150.758 E97.55488
G1 X149.734 Y150.503 E97.56865
G1 X149.778 Y150.247 E97.58247
G1 X149.905 Y150.019 E97.59636
M204 S3000
M205 X10 Y10
G1 F3000 E92.59636
G0 X150.603 Y248.737
M204 S1800
M205 X8 Y8
G1 F3000 E97.59636
G1 F1200 X150.847 Y248.813 E97.60996
G1 X151.058 Y248.968 E97.62389
G1 X151.201 Y249.179 E97.63746
G1 X151.266 Y249.433 E97.65141
G1 X151.245 Y249.692 E97.66524
G1 X151.138 Y249.927 E97.67898
G1 X150.959 Y250.114 E97.69275
G1 X150.644 Y250.259 E97.71121
G1 X150.34 Y250.246 E97.7274
G1 X150.096 Y250.149 E97.74137
G1 X149.905 Y249.981 E97.75491
G1 X149.778 Y249.753 E97.7688
G1 X149.734 Y249.497 E97.78262
G1 X149.778 Y249.242 E97.79639
G1 X149.905 Y249.014 E97.81028
G1 X150.096 Y248.846 E97.82382
G1 X150.34 Y248.749 E97.83779
G1 X150.603 Y248.737 E97.8518
M204 S3000
M205 X10 Y10
G1 F3000 E92.8518
G0 X248.741 Y249.369
M204 S1800
M205 X8 Y8
G1 F3000 E97.8518
G1 F1200 X248.829 Y249.12 E97.86585
G1 X248.988 Y248.922 E97.87937
G1 X249.211 Y248.786 E97.89327
G1 X249.467 Y248.73 E97.90721
G1 X249.805 Y248.787 E97.92546
G1 X250.054 Y248.97 E97.9419
G1 X250.196 Y249.18 E97.95539
G1 X250.261 Y249.433 E97.96929
G1 X250.24 Y249.692 E97.98312
G1 X250.133 Y249.927 E97.99686
G1 X249.955 Y250.113 E98.01056
G1 X249.72 Y250.232 E98.02458
G1 X249.467 Y250.265 E98.03816
G1 X249.21 Y250.208 E98.05217
G1 X248.988 Y250.073 E98.06599
G1 X248.829 Y249.875 E98.07951
G1 X248.741 Y249.626 E98.09356
G1 X248.741 Y249.369 E98.10724
M204 S3000
M205 X10 Y10
G1 F3000 E93.10724
G0 X249.498 Y151.276
M204 S1800
M205 X8 Y8
G1 F3000 E98.10724
G1 F1200 X249.209 Y151.213 E98.12298
G1 X248.988 Y151.078 E98.13676
G1 X248.829 Y150.88 E98.15027
G1 X248.741 Y150.631 E98.16433
G1 X248.741 Y150.374 E98.178
G1 X248.829 Y150.125 E98.19206
G1 X248.988 Y149.927 E98.20557
G1 X249.21 Y149.792 E98.2194
G1 X249.467 Y149.735 E98.23341
G1 X249.72 Y149.768 E98.24698
G1 X249.955 Y149.887 E98.261
G1 X250.133 Y150.073 E98.2747
G1 X250.24 Y150.308 E98.28844
G1 X250.261 Y150.567 E98.30227
G1 X250.196 Y150.821 E98.31622
G1 X250.054 Y151.031 E98.32971
G1 X249.839 Y151.189 E98.34391
G1 X249.498 Y151.276 E98.36264
M204 S3000
M205 X10 Y10
G0 F3000 X249.451 Y151.799
M204 S1800
M205 X8 Y8
;TYPE:SUPPORT-INTERFACE
G1 F1200 X249.651 Y151.791 E98.37329
G1 X250.077 Y151.66 E98.39701
G1 X250.434 Y151.397 E98.42061
G1 X250.677 Y151.036 E98.44377
G1 X250.787 Y150.612 E98.46708
G1 X250.75 Y150.175 E98.49042
G1 X250.57 Y149.778 E98.51361
G1 X250.268 Y149.462 E98.53687
G1 X249.877 Y149.264 E98.5602
G1 X249.442 Y149.208 E98.58354
G1 X249.014 Y149.302 E98.60686
G1 X248.64 Y149.53 E98.63017
G1 X248.368 Y149.868 E98.65325
G1 X248.221 Y150.285 E98.67678
G1 X248.221 Y150.72 E98.69993
G1 X248.368 Y151.137 E98.72346
G1 X248.64 Y151.475 E98.74655
G1 X249.016 Y151.703 E98.76995
G1 X249.451 Y151.799 E98.79366
M204 S3000
M205 X10 Y10
G0 F3000 X249.409 Y152.496
M204 S1800
M205 X8 Y8
G1 F1200 X249.274 Y152.48 E98.80089
